packages/ui-icons/svg/Solid/stats.svg

<svg viewBox="0 0 1920 1920" version="1.1" xmlns="http://www.w3.org/2000/svg">
    <path d="M112.941176,153.527059 L112.941176,1734.70353 L338.823529,1734.70353 L338.823529,944.115294 L790.588235,944.115294 L790.588235,1734.70353 L903.529412,1734.70353 L903.529412,1169.99765 L1355.29412,1169.99765 L1355.29412,1734.70353 L1468.23529,1734.70353 L1468.23529,718.232941 L1920,718.232941 L1920,1847.64471 L0,1847.64471 L0,153.527059 L112.941176,153.527059 Z M1586.59765,73 L1688.69647,121 C1681.69412,136.134118 1511.94353,491.672941 1248.33882,557.404706 C1138.56,584.623529 1030.02353,559.098824 926.117647,481.056471 C805.609412,390.703529 705.882353,364.501176 629.985882,402.449412 C496.376471,469.197647 451.764706,714.731765 451.764706,774.703529 L338.823529,774.703529 C338.823529,680.510588 395.858824,393.188235 579.501176,301.367059 C697.298824,242.637647 836.555294,272.68 993.882353,390.703529 C1070.34353,447.964706 1144.43294,466.712941 1220.78118,447.738824 C1432.43294,395.334118 1585.01647,76.1623529 1586.59765,73 Z" stroke="none" stroke-width="1" fill-rule="evenodd"/>
</svg>

<svg viewBox="0 0 1920 1920" xmlns="http://www.w3.org/2000/svg">
    <path d="M112.941 153.527v1581.177h225.883V944.115h451.764v790.589H903.53v-564.706h451.765v564.706h112.941V718.233H1920v1129.412H0V153.527h112.941ZM1586.598 73l102.098 48c-7.002 15.134-176.752 370.673-440.357 436.405-109.779 27.219-218.315 1.694-322.221-76.349-120.509-90.352-220.236-116.555-296.132-78.607-133.61 66.749-178.221 312.283-178.221 372.255H338.824c0-94.193 57.035-381.516 240.677-473.337 117.798-58.73 257.054-28.687 414.381 89.337 76.462 57.26 150.55 76.009 226.9 57.035C1432.431 395.334 1585.015 76.162 1586.597 73Z" fill-rule="evenodd"/>
</svg>
